X:1
T:One Night Of Love
T:One Night Of Love
T:From the movie "One Night Of Love"
T:Victor Schertzinger
T:Gus Kahn
C:Victor Schertzinger
Z:All Rights Reserved
L:1/8
M:3/4
K:F
V:1 treble 
%%MIDI program 40
%%MIDI control 7 100
%%MIDI control 10 64
V:1
"F" f6 |"Fmaj7" e4 c2 |"Gm7" d2 GA Bc |"C9" G6 ||[M:2/2]"F" z2 AA"Fmaj7" c2 cc |"Gm7" G2"C7" G6 | %6
w: ||||Though my heart may be|lone- ly|
"F" A2 AA"F/A" c2 AF |"Abdim" E8 |"Gm7" D2 EF"C7" G2 AB |"F/A" c2 c2-"Fmaj7" cee"F6"d | %10
w: I find ro- mance in my|dreams|While I am wait ing for|on- ly * 0ne night of|
"Gm7" B4- Bddc |"A+7""A7""Cm" A6"D7" c2 |"Gm7""Gm7b5""C7" G8 ||[M:3/4]"F" F6 |"Am" E4 C2 | %15
w: love * one star- lit|night of|love.|One|night of|
"Gm" D6- |"C7" D4 C2 |"Ebm" B6 |"C7" A4 E2 |"F" G6- | G4 F2 | d4 c2 |"Cm7b5" B4 A2 |"C7" c6- | %24
w: love,|* When|two|hearts are|one.|* A|night to|have and|hold,|
 c4 C2 |"F" B4 A2 | G4 F2 |"Gm" G2 D2 A2 |"C7" G6 |"F" F6 |"Am" E4 C2 |"Gm" D6- | D4 C2 | B6 | %34
w: * When|love is|gone and|star- light grows|cold.|One|night of|love,|* When|love|
"A7" A6 |"Dm" G6- | G4 F2 |"G7" e6 | d6 |"F" f6- | fe dc BA |"C7" e6- | ed cB AG |"D7" d6- | %44
w: is|all|* that|I'll|re-|call,|* When at the break of|dawn,|* I find my lov- er|gone,|
 dc BA G^F |"Gm" A4 G2 |"Bbm" c3 B FG |"F" A6- | A4 C2 |"Fdim" _A4 C2 |"Dbm" _A4"C7" =A2 |"F" c6- | %52
w: * I'll whis- per with a|smile, I've|lived a lit- tle|while,|* I've|known one|night of|love.-|
 c4 z2 |] %53
w: |

